packages/icons/svg/24/Invoice.svg

<svg width="24" height="24" viewBox="0 0 24 24" fill="none" xmlns="http://www.w3.org/2000/svg">
<path fill-rule="evenodd" clip-rule="evenodd" d="M5 22C3.34315 22 2 20.6569 2 19V5C2 3.34315 3.34315 2 5 2H15C16.6569 2 18 3.34315 18 5V15H22V19C22 20.6569 20.6569 22 19 22H5ZM18 19C18 19.2652 18.1054 19.5196 18.2929 19.7071C18.4804 19.8946 18.7348 20 19 20C19.2652 20 19.5196 19.8946 19.7071 19.7071C19.8946 19.5196 20 19.2652 20 19V17H18V19ZM6 14C6 13.7239 6.22386 13.5 6.5 13.5H13.5C13.7761 13.5 14 13.7239 14 14C14 14.2761 13.7761 14.5 13.5 14.5H6.5C6.22386 14.5 6 14.2761 6 14ZM6.5 15.5C6.22386 15.5 6 15.7239 6 16C6 16.2761 6.22386 16.5 6.5 16.5H13.5C13.7761 16.5 14 16.2761 14 16C14 15.7239 13.7761 15.5 13.5 15.5H6.5ZM6 18C6 17.7239 6.22386 17.5 6.5 17.5H13.5C13.7761 17.5 14 17.7239 14 18C14 18.2761 13.7761 18.5 13.5 18.5H6.5C6.22386 18.5 6 18.2761 6 18ZM9 6C9 5.72386 8.77614 5.5 8.5 5.5C8.22386 5.5 8 5.72386 8 6V6.5H7.25C6.55964 6.5 6 7.05964 6 7.75C6 8.44036 6.55964 9 7.25 9H9.75C9.88807 9 10 9.11193 10 9.25C10 9.38807 9.88807 9.5 9.75 9.5H7C6.72386 9.5 6.5 9.72386 6.5 10C6.5 10.2761 6.72386 10.5 7 10.5H8V11C8 11.2761 8.22386 11.5 8.5 11.5C8.77614 11.5 9 11.2761 9 11V10.5H9.75C10.4404 10.5 11 9.94036 11 9.25C11 8.55964 10.4404 8 9.75 8H7.25C7.11193 8 7 7.88807 7 7.75C7 7.61193 7.11193 7.5 7.25 7.5H10C10.2761 7.5 10.5 7.27614 10.5 7C10.5 6.72386 10.2761 6.5 10 6.5H9V6Z" fill="#858585"/>
</svg>

<svg width="24" height="24" fill="none" xmlns="http://www.w3.org/2000/svg" viewBox="0 0 24 24"><path fill-rule="evenodd" clip-rule="evenodd" d="M5 22a3 3 0 01-3-3V5a3 3 0 013-3h10a3 3 0 013 3v10h4v4a3 3 0 01-3 3H5zm13-3a1 1 0 002 0v-2h-2v2zM6 14a.5.5 0 01.5-.5h7a.5.5 0 010 1h-7A.5.5 0 016 14zm.5 1.5a.5.5 0 000 1h7a.5.5 0 000-1h-7zM6 18a.5.5 0 01.5-.5h7a.5.5 0 010 1h-7A.5.5 0 016 18zM9 6a.5.5 0 00-1 0v.5h-.75a1.25 1.25 0 100 2.5h2.5a.25.25 0 010 .5H7a.5.5 0 000 1h1v.5a.5.5 0 001 0v-.5h.75a1.25 1.25 0 100-2.5h-2.5a.25.25 0 010-.5H10a.5.5 0 000-1H9V6z" fill="currentColor"></path></svg>
